images/ico_gift.svg

<svg width="18" height="20" viewBox="0 0 18 20" fill="none" xmlns="http://www.w3.org/2000/svg">
<path d="M2.72995 4.8838C3.49738 5.44196 4.69475 5.72328 5.85803 5.77512C5.93949 5.77877 6.02041 5.77994 6.10137 5.78134L6.09549 5.78398H11.0728L11.0711 5.78317C12.3303 5.77221 13.6809 5.49329 14.5189 4.8838C15.8858 3.8896 15.71 2.33656 14.8481 1.08876C13.9863 -0.159046 12.1795 -0.364622 10.8125 0.629567C10.0098 1.2134 9.01921 2.62628 8.62441 3.78984C8.22961 2.62628 7.23908 1.2134 6.43633 0.629567C5.06936 -0.364622 3.26252 -0.159046 2.40069 1.08876C1.53883 2.33656 1.36298 3.8896 2.72995 4.8838ZM10.8952 1.72858C11.7522 1.10523 12.8851 1.23412 13.4255 2.0165C13.9659 2.79886 14.0761 3.77262 13.2191 4.39597C12.362 5.01933 10.6495 5.09201 9.72611 4.78171C8.838 4.48328 10.0381 2.35195 10.8952 1.72858ZM3.82332 2.0165C4.3637 1.23412 5.49658 1.10523 6.35367 1.72858C7.21076 2.35195 8.41082 4.48328 7.52271 4.78171C6.5993 5.09201 4.88685 5.01933 4.02976 4.39597C3.17267 3.77262 3.28295 2.79886 3.82332 2.0165Z" fill="white"/>
<path d="M1.46948 18.6223C1.49838 19.1137 1.89928 19.4972 2.38411 19.4972H7.54445V10.8701H1.01367L1.46948 18.6223Z" fill="white"/>
<path d="M9.70117 19.4972H14.8615C15.3463 19.4972 15.7473 19.1137 15.7762 18.6223L16.2319 10.8701H9.70117V19.4972Z" fill="white"/>
<path d="M16.3905 6.49219H9.70117V9.96877H17.2464V7.36133C17.2464 6.8813 16.8632 6.49219 16.3905 6.49219Z" fill="white"/>
<path d="M0 7.36133V9.96877H7.54527V6.49219H0.855976C0.383235 6.49219 0 6.8813 0 7.36133Z" fill="white"/>
</svg>

<svg width="18" height="20" fill="none" xmlns="http://www.w3.org/2000/svg"><path d="M2.73 4.884c.767.558 1.965.84 3.128.891.081.004.162.005.243.006l-.006.003h4.978-.002c1.26-.012 2.61-.29 3.448-.9 1.367-.994 1.191-2.547.33-3.795-.863-1.248-2.67-1.454-4.037-.46-.802.584-1.793 1.997-2.188 3.16C8.23 2.627 7.24 1.214 6.436.63c-1.367-.994-3.173-.788-4.035.46-.862 1.248-1.038 2.8.329 3.795zm8.165-3.155c.857-.624 1.99-.495 2.53.288.54.782.651 1.756-.206 2.379s-2.57.696-3.493.386c-.888-.299.312-2.43 1.17-3.053zm-7.072.288c.54-.783 1.674-.912 2.53-.288.858.623 2.058 2.754 1.17 3.053-.924.31-2.636.237-3.493-.386-.857-.623-.747-1.597-.207-2.38zM1.47 18.622c.028.492.43.875.914.875h5.16V10.87h-6.53l.455 7.752zm8.231.875h5.16a.922.922 0 00.915-.875l.456-7.752h-6.53v8.627zM16.39 6.492H9.701V9.97h7.545V7.36a.862.862 0 00-.855-.869zM0 7.361V9.97h7.545V6.492H.856a.863.863 0 00-.856.87z" fill="#fff"/></svg>
